X:1
T:Laudate pueri Dominum - Anerio
T:#
%%score [ 1 2 3 4 ]
L:1/8
Q:1/4=120
M:4/4
K:C
V:1 treble nm="Soprano" snm="S"
V:2 treble nm="Alto" snm="A"
V:3 treble-8 nm="Tenor" snm="T"
V:4 treble nm="Bass" snm="B"
V:1
 z20 |[K:Bb][K:treble][Q:1/4=180][Q:1/4=180][Q:1/4=180][Q:1/4=180] B4 d2 d2 e2 d2 c3 c | %2
w: |Lau- da- te no- men Do- mi-|
 d4 c4 c2 c2 B2 A2 | G4 G4 !fermata!A16 ||[Q:1/4=120][Q:1/4=120][Q:1/4=120][Q:1/4=120] z18 | z20 || %6
w: ni, lau- da- te no- men|Do- mi- ni.|||
[M:4/2][Q:1/4=180][Q:1/4=180][Q:1/4=180][Q:1/4=180] F8 F4 G4 | A8 A8 | B12 A4 | %9
w: A so- lis|or- tu|us- que|
 (G2 A2 B2 c2 d4) B4 | (A2 B4 A2) B8- | B8 z8 | z16 | c8 (d6 c2 | B4) d4 c4 f4 | d4 (e6 d2 c4- | %16
w: ad * * * * oc-|ca\- * * sum:|||lau- da\- *|* bi- le no-|men Do\- * *|
 c4) =B4 c8- | !fermata!c16 ||[Q:1/4=120][Q:1/4=120][Q:1/4=120][Q:1/4=120] z20 | z18 || %20
w: * mi- ni.||||
[M:4/2][Q:1/4=180][Q:1/4=180][Q:1/4=180][Q:1/4=180] B8 B4 c4 | d6 d2 d4 e4- | e4 d4 c8- | %23
w: Quis si- cut|Do- mi- nus De\-|* us no\-|
 c4 =B4 c2 c2 c2 d2 | c6 c2 c8 | z4 A8 G4 | ^F6 F2 F8 | B6 B2 B4 c4 | d8 d8- | d8 z8 | z8 (f6 e2 | %31
w: * ster, qui in al- tis|ha- bi- tat,|et hu-|mi- li- a|re- spi- cit in|coe- lo||et *|
 d2 c2 B2 A2 G4) F4- | F4 =E4 !fermata!F16 ||[Q:1/4=120][Q:1/4=120][Q:1/4=120][Q:1/4=120] z18 | %34
w: * * * * * in|* ter- ra?||
 z20 ||[M:4/2][Q:1/4=180][Q:1/4=180][Q:1/4=180][Q:1/4=180] F8 G6 A2 | B4 (c6 B2 B4- | B4 A4) B8 | %38
w: |Ut col- lo-|cet e\- * *|* * um|
 z16 | z8 B8 | B8 A6 A2 | A8 A8- | A4 =B4 c6 c2 | c8 d8- | d4 c4 d8 | c8 !fermata!A16 || %46
w: |cum|prin- ci- pi-|bus, cum|* prin- ci- pi-|bus po\-|* pu- li|su- i.|
[Q:1/4=120][Q:1/4=120][Q:1/4=120][Q:1/4=120] z18 | z18 || %48
w: ||
[M:3/1][Q:1/4=360][Q:1/4=360][Q:1/4=360][Q:1/4=360] d12 d4 d8 | e16 d8 | d8 =B8 c8 | d16 z8 | %52
w: Glo- ri- a|Pa- tri,|et Fi- li-|o,|
 d16 c8 | =B16 c8 | A8 G16 | !fermata!A24 ||[Q:1/4=120][Q:1/4=120][Q:1/4=120][Q:1/4=120] z18 | %57
w: et Spi-|ri- tu-|i san-|cto.||
 z18 |] %58
w: |
V:2
 z20 |[K:Bb][K:treble] F4 D2 F2 G2 F2 F3 F | F4 z2 C2 A,2 F,2 F2 F2 | =E6 E2 !fermata!F16 || z18 | %5
w: |Lau- da- te no- men Do- mi-|ni, lau- da- te no- men|Do- mi- ni.||
 z20 ||[M:4/2] C8 D4 =E4 | F8 F8 | F4 F4 G4 A4 | B8 F8- | F8 z4 F4- | F4 G6 F2 E4 | %12
w: |A so- lis|or- tu|us- que ad oc-|ca- sum:|* lau\-|* da- bi- le|
 F4 F4 (B,2 C2 D2 E2) | F12 F4 | (D2 E2 F2 G2 A4) A4 | B6 A2 G4 A4- | A2 G2 F8 =E4 | %17
w: no- men Do\- * * *|* mi-|ni, * * * * lau-|da- bi- le no\-|* men Do- mi-|
 !fermata!F16 || z20 | z18 ||[M:4/2] F8 G4 A4 | B6 B2 B4 B4- | B4 B4 G8 | G8 z4 G2 G2 | %24
w: ni.|||Quis si- cut|Do- mi- nus De\-|* us no-|ster, qui in|
 G2 F2 G3 G A8 | z4 F8 E4 | D6 D2 D8 | z4 G6 G2 G2 A2 | B8 B8 | (B6 A2 G4) F4 | E8 D8 | %31
w: al- tis ha- bi- tat,|et hu-|mi- li- a|re- spi- cit in|coe- lo|et * * in|ter- ra,|
 (F6 E2 D4) D4 | C8 !fermata!C16 || z18 | z20 ||[M:4/2] z16 | z16 | z4 F4 E4 E4 | %38
w: et * * in|ter- ra?|||||Ut col- lo-|
 D4 (E6 D2 D2 CB, | C8) B,4 F4- | F4 =E4 F6 F2 | F8 F8- | F4 F4 =E6 E2 | =E4 G8 D4 | F8 (F8- | %45
w: cet e\- * * * *|* um cum|* prin- ci- pi-|bus, cum|* prin- ci- pi-|bus po- pu-|li su\-|
 F4 =E4) !fermata!F16 || z18 | z18 ||[M:3/1] B12 B4 B8 | B16 B8 | F8 G8 A8 | B16 z8 | B16 G8 | %53
w: * * i.|||Glo- ri- a|Pa- tri,|et Fi- li-|o,|et Spi-|
 G12 G4 G8 | (F16 =E8) | !fermata!F24 || z18 | z18 |] %58
w: ri- tu- i|san\- *|cto.|||
V:3
[K:Bb]"^Laudate pueri Dominum""^Felice Anerio\n(c. 1560-1614)""^Psalm 113 (Vulgate 112)" F2 G2 B2 B2 B2 B2 c2 B2 B4 | %1
w: Lau- da- te pu- e- ri Do- mi- num.|
 d4 f2 d2 B2 B2 A3 A | B2 F2 A3 B (c2 A2 d2) c2 | c6 c2 !fermata!c16 || F2 G2 B8 c2 B4 | %5
w: Lau- da- te no- men Do- mi-|ni, lau- da- te no\- * * men|Do- mi- ni.|Sit no- men~Domini~bene- di- ctum|
 B8 A2 B2 G2 F2 F4 ||[M:4/2][K:treble-8] A8 A4 c4 | c8 c8 | d12 f4 | B4 e4 (d6 cB | c8) d8 | %11
w: ex~hoc~nunc~et~us- que in sae- cu- lum.|A so- lis|or- tu|us- que|ad oc- ca\- * *|* sum:|
 d8 e6 d2 | c4 d6 c2 B4- | B4 (A4 B2 c2 d2 e2 | f8) z2 c2 d4- | d2 c2 B4 c8 | F8 G6 G2 | %17
w: lau- da- bi-|le no- men Do\-|* mi- ni, * * *|* lau- da\-|* bi- le no-|men Do- mi-|
 !fermata!F16 || F2 G2 B8 c2 B2 B4 | B8 A2 B2 G2 F4 ||[M:4/2][K:treble-8] d8 d4 f4 | f6 f2 f4 g4- | %22
w: ni.|Ex- cel- sus~super~omnes~gentes Do- mi- nus,|et~super~caelos~glo- ri- a e- ius.|Quis si- cut|Do- mi- nus De\-|
 g4 f4 e8 | d8 e2 e2 e2 d2 | (=e2 f4) e2 f8 | z4 c8 c4 | A6 A2 A4 d4- | d2 d2 d8 =e4 | %28
w: * us no-|ster, qui in al- tis|ha\- * bi- tat,|et hu-|mi- li- a re\-|* spi- cit in|
 f4 f4 (f6 e2) | (d2 c2 B4) (c2 B2) (B4- | B4 A4) B4 (f4- | f2 e2 d2 c2 B4) A4 | G8 !fermata!F16 || %33
w: coe- lo et *|* * * in * ter\-|* * ra, et|* * * * * in|ter- ra?|
 F2 G2 B8 c2 B4 | B8 A2 B2 G2 F2 F4 ||[M:4/2][K:treble-8] z4 f4 e4 e4 | d4 (e6 d2 d2 cB | c8) B8 | %38
w: Su- sci- tans~a~terra~i- no- pem,|et~de~stercore~e- ri- gens pau- per- em:|Ut col- lo-|cet e\- * * * *|* um|
 z16 | z8 d8- | d4 B4 c6 c2 | c16 | c4 F4 G6 G2 | G8 B8- | B4 A4 B8 | G8 !fermata!F16 || %46
w: |cum|* prin- ci- pi-|bus,|cum prin- ci- pi-|bus po\-|* pu- li|su- i.|
 F2 G2 B8 c2 B4 | B8 A2 B2 G2 F4 ||[M:3/1][K:treble-8] f12 f4 f8 | g16 f8 | d8 d8 =e8 | f16 z8 | %52
w: Qui ha- bitare~facit~sterilem~in do- mo,|matrem~filio- rum lae- tan- tem.|Glo- ri- a|Pa- tri,|et Fi- li-|o,|
 f16 e8 | d16 c8 | c8 c16 | !fermata!c24 || F2 G2 B8 c2 B4 | B8 A2 B2 G2 F4 |] %58
w: et Spi-|ri- tu-|i san-|cto.|Si- cut erat~in~principio,~et~nunc,~et sem- per,|et~in~saecula~saecu- lo- rum. A- men.|
V:4
 z20 |[K:Bb][K:bass] B,4 B,2 B,2 G,2 B,2 F,2 F,2 | B,,4 F,4 F,2 F,2 D,2 F,2 | %3
w: |Lau- da- te no- men Do- mi-|ni, lau- da- te no- men|
 C,4 C,4 !fermata!F,16 || z18 | z20 ||[M:4/2] F,8 D,4 C,4 | F,8 F,8 | B,6 A,2 G,4 F,4 | %9
w: Do- mi- ni.|||A so- lis|or- tu|us- que ad oc-|
 (E,2 F,2 G,2 A,2 B,6 A,G, | F,8) B,,8 | B,8 C6 B,2 | A,4 B,8 G,4 | F,6 F,2 B,,8- | B,,8 F,8 | %15
w: ca\- * * * * * *|* sum|lau- da- bi-|le no- men|Do- mi- ni,|* lau-|
 G,6 F,2 E,4 F,4- | F,4 D,4 C,4 C,4 | !fermata!F,16 || z20 | z18 ||[M:4/2] B,8 G,4 F,4 | %21
w: da- bi- le no\-|* men Do- mi-|ni.|||Quis si- cut|
 B,6 B,2 B,4 E,4- | E,4 B,,4 C,8 | G,8 C2 C2 C2 =B,2 | C4 C4 F,8 | F,12 C,4 | D,6 D,2 D,8 | %27
w: Do- mi- nus De\-|* us no-|ster, qui in al- tis|ha- bi- tat,|et hu-|mi- li- a|
 G,6 G,2 G,4 C4 | B,8 B,4 B,4- | (B,2 A,2 G,2 F,2 E,4) D,4 | C,8 B,,8 | B,,8 B,,8 | %32
w: re- spi- cit in|coe- lo et|* * * * * in|ter- ra,|et in|
 C,8 !fermata!F,16 || z18 | z20 ||[M:4/2] z16 | z16 | F,8 G,6 A,2 | B,4 (C6 B,2 B,4- | %39
w: ter- ra?|||||Ut col- lo-|cet e\- * *|
 B,4 A,4) B,4 B,4- | B,4 G,4 F,6 F,2 | F,8 F,8- | F,4 D,4 C,4 C,4 | C,8 G,8 | D,4 F,4 (B,,8 | %45
w: * * um cum|* prin- ci- pi-|bus, cum|* prin- ci- pi-|bus po-|pu- li su\-|
 C,8) !fermata!F,16 || z18 | z18 ||[M:3/1] B,12 B,4 B,8 | E,16 B,,8 | B,8 G,8 C8 | B,16 z8 | %52
w: * i.|||Glo- ri- a|Pa- tri,|et Fi- li-|o,|
 B,16 C8 | G,16 =E,8 | F,8 C,16 | !fermata!F,24 || z18 | z18 |] %58
w: et Spi-|ri- tu-|i san-|cto.|||

